X:1
T:Title
%%score { ( 1 3 ) | 2 }
L:1/8
M:4/4
K:C
V:1 treble nm="Grand Piano"
V:3 treble 
V:2 bass 
V:1
 z4 z2[Q:1/4=100] [CE][DF] | [EG]3 [EG] [EA]2 [Ec]2 | [Fc]2 [FB]4 [FA]2 | G3 A G3 A | G6 [FG]2 | %5
 [EG]3 [EG] [EA]2 [CEG]2 | [CGc]2 [CFc]4 [DFc]2 | [EGc]3 [G,CE] [B,DG]2 [G,D]2 | G4 z4 | %9
 G3 G [FA]2 [Fd]2 |[M:3/4] [Ec]6 |] %11
V:2
 z4 z2 [C,G,]2 | [C,C]3 [C,C] [C,C]2 [C,G,]2 | [D,G,]2 [D,G,]4 [D,C]2 | %3
 [G,B,F]3 [G,CF] [G,B,F]3[K:bass] [F,B,D] | [E,C]6 [D,B,]2 | [C,C]3 [C,C] [C,C]2 _B,,2 | %6
 A,,2 A,,4 ^G,,2 | G,,3 G,, G,,2 B,,2 | C,2 [D,B,]2 [E,C]2 [F,A,D]2 | %9
 [G,CE]3 [E,C] [D,C]2 [G,,B,]2 |[M:3/4] [C,G,C]6 |] %11
V:3
 x8 | x8 | x8 | x8 | x8 | x8 | x8 | x8 | [G,E]2 F2 G2 c2 | x8 |[M:3/4] x6 |] %11

